X:1
T:6 Lieder, Op.26
T:Bei Nacht und Nebel
T:Frau Clara Schumann freundlichst gewidmet
T:6 Lieder, Op.26
T:Josephine Lang
T:2. Bei Nacht und Nebel
T:Christian Reinhold Köstlin
T:OpenScore (CC0)
T:OpenScore (CC0)
C:Josephine Lang
Z:Christian Reinhold Köstlin
Z:OpenScore (CC0)
%%score 1 { ( 2 5 ) | ( 3 4 ) }
L:1/8
Q:1/4=92
M:2/4
K:Eb
V:1 treble nm="Singstimme\nVoice"
V:2 treble nm="Pianoforte"
V:5 treble 
V:3 bass 
V:4 bass 
V:1
"^Andante" z2 z!p! B, | B, B, E G | B3/2 c/ B A/G/ | F z/ G/ A c | B3 z/ B,/ | B,3/2 B,/ E G | %6
w: Bei|Nacht und Ne- bel|fahr’ ich fort, frag’ *|nicht, wo- hin es|geht! denn|ach, was Lie- bes|
 B3/2 =E/ E (B | d) c B =A | G3/2 F/ F F | F B B =A/B/ | c2 z"^più lento" c | %11
w: liess ich dort, denn|ach! was Lie- bes|liess ich dort, das|noch am Fen- ster *|steht. Vom|
[Q:1/4=84]!f! c3/2 B/ F G | B3/2 A/ C!mf! D |[Q:1/4=88] F E A3/2 G/ | F3 B, | %15
w: lie- ben Mund das|Ab- schieds- wort, ich|hör’ es früh und|spät, das|
[Q:1/4=92]!<(! B,3/2 B,/ E G!<)! | B3/2 c/!>(! B A/G/!>)! |!<(! F G A c!<)! | B3!mf! B, | %19
w: treu- e Aug’ bleibt|im- mer- fort der *|Stern, der mit mir|geht, das|
 B,3/2!<(! E/ G B!<)! |!>(! e3/2 =A/ A2!>)! | z2 z e | (e4 | B) z z E |"^dim." A4- | %25
w: treu- e Aug’ bleibt|im- mer- fort|der|Stern,|_ der|Stern,|
 !fermata!A B,"^riten."[Q:1/4=82] G3/2 F/ |[Q:1/4=92]{/E} E4 | z4 | z4 | z4 | z4 | z4 | z4 | %33
w: _ der mit mir|geht.|||||||
[Q:1/4=90] z4 |[Q:1/4=86] z4 |[Q:1/4=80] z4 |"_C. Reinhold." z4 |] %37
w: ||||
V:2
!pp! [EG][EG][EG][EG] | !/![EG]4 | !/![EG]4 | !/![EG]4 | FGAG/^F/ | !/![EG]4 | F2 =E2 | %7
!>(! [B,DF][_EFc][DFB][CE=A]!>)! | [B,EG][=A,CEF][G,B,EF][A,CEF] | [B,DF]!<(![DF][C=EG][CEG]!<)! | %10
!>(! !/![C_EF]4!>)! |!f!"^più lento" z [_A,B,F][A,B,F][A,B,F] | z [A,B,F][A,B,F]!mf![A,B,F] | %13
 z [G,B,EG][G,B,EG][G,B,EG] | z!mf!!<(! [A,B,DF][A,B,DF][A,B,D^F]!<)! |!>(! !/![G,B,EG]4!>)! | %16
 !/![G,B,EG]4 | !/![A,B,DF]4 |!<(! FG!<)!!>(!AG/^F/!>)! |!<(! !/![G,B,EG]4!<)! |!f! !/![=A,EF=A]4 | %21
!p!"^dimin." e>_A A2 | !/![G,B,EG]4 | !/![G,B,EG]4 |"_cresc." !/![CFAc]4 |!f! !/!!fermata![DFBd]4 | %26
!f! [EGe]!mp!!<(![G,B,][G,B,E][G,B,EG]!<)! |!>(! B>cBA/G/!>)! | FGAc | B4- | %30
 B!mf!!<(![I:staff +1] B,[I:staff -1]EG!<)! |!>(! B>cBA/G/!>)! |!mf! [B,DF]!f! [AB]2 [AB-] | %33
 B!f! [AB]2 [AB-] |"^dimin." B!f! [AB]2 [AB-] | B z!p![I:staff +1] [G,B,][I:staff -1] z | %36
 !arpeggio![EBe]4 |] %37
V:3
 [G,B,][G,B,][G,B,][G,B,] | !/![G,B,]4 | !/![G,B,]4 | !/![A,B,]4 | !/![A,B,D]4 | !/![G,B,]4 | %6
 [B,D][B,D] [B,C][B,C] | [F,,F,]4 | F,,4 | F,[F,B,][F,B,][F,B,] | !/![F,=A,]4 | !^![B,,,B,,]4 | %12
 B,,4 | B,,,4 | B,,4 | !/![E,,B,,E,]4 | !/![E,,B,,E,]4 | !/![E,,B,,D,]4 | !/![A,B,D]4 | %19
 !/![E,,B,,E,]4 | !/![C,,C,]4 | [_C,,_C,][C,E,][C,E,][C,E,] | [B,,,B,,] [B,,E,][B,,E,][B,,E,] | %23
 !/![B,,E,]4 | !/![B,,F,A,]4 | !fermata![B,,F,A,B,]4 | E, [E,,B,,][E,,B,,][E,,B,,] | %27
 !/![E,,B,,G,]4 | !/![E,,B,,]4 | !/![E,,B,,]4 | [E,,B,,E,][E,,B,,][E,,B,,][E,,B,,] | %31
 !/![E,,B,,G,]4 | [B,,,B,,] [B,,,B,,]2 [B,,,B,,] | [E,,B,,] [B,,,B,,]2 [B,,,B,,] | %34
 [E,,B,,] [B,,,B,,]2 [B,,,B,,] | [E,,B,,] z [E,,B,,] z | !arpeggio![E,,B,,G,]4 |] %37
V:4
 [E,,B,,E,][E,,B,,E,][E,,B,,E,][E,,B,,E,] | !/![E,,B,,E,]4 | !/![E,,B,,E,]4 | !/![E,,B,,F,]4 | %4
 !/![E,,B,,F,]4 | !/![E,,B,,E,]4 | [F,,F,][F,,F,] [G,,G,][G,,G,] | x4 | x4 | x4 | x4 | x4 | x4 | %13
 x4 | x4 | x4 | x4 | x4 | !/![E,,B,,F,]4 | x4 | x4 | x4 | x4 | x4 | x4 | x4 | x4 | x4 | x4 | x4 | %30
 x4 | x4 | x4 | x4 | x4 | x4 | x4 |] %37
V:5
 x4 | x4 | x4 | x4 | x4 | x4 | x4 | x4 | x4 | x4 | x4 | x4 | x4 | x4 | x4 | x4 | x4 | x4 | x4 | %19
 x4 | x4 | EE [_A,E][A,E] | x4 | x4 | x4 | x4 | x4 | !/![B,E]4 | !/![A,B,D]4 | %29
 [B,D][CE][DF][CE]/[B,D]/ | [EG][I:staff +1] G,[G,B,][G,B,] |[I:staff -1] !/![B,E]4 | %32
 z [CE]!>(![DF][CE]/[B,D]/ | [EG]!>)![CE]!>(![DF][CE]/[B,D]/ | [EG]!>)![CE][DF][CE]/[B,D]/ | %35
 [EG] x3 | x4 |] %37

